images/tel-icon.svg

<svg width="16" height="16" viewBox="0 0 16 16" fill="none" xmlns="http://www.w3.org/2000/svg">
<g clip-path="url(#clip0_32_44)">
<path fill-rule="evenodd" clip-rule="evenodd" d="M13.1846 2.95331C13.3493 2.88397 13.5297 2.86006 13.7068 2.88405C13.8839 2.90805 14.0514 2.97909 14.1917 3.08977C14.3321 3.20044 14.4402 3.34672 14.5048 3.51337C14.5695 3.68001 14.5883 3.86094 14.5593 4.03731L13.0473 13.2086C12.9006 14.0933 11.9299 14.6006 11.1186 14.16C10.4399 13.7913 9.43193 13.2233 8.52526 12.6306C8.07193 12.334 6.68327 11.384 6.85393 10.708C7.0006 10.13 9.33393 7.95798 10.6673 6.66664C11.1906 6.15931 10.9519 5.86664 10.3339 6.33331C8.79926 7.49198 6.33526 9.25398 5.5206 9.74998C4.80193 10.1873 4.42726 10.262 3.97926 10.1873C3.16193 10.0513 2.40393 9.84064 1.78527 9.58398C0.949265 9.23731 0.989932 8.08798 1.7846 7.75331L13.1846 2.95331Z" fill="#89725B"/>
</g>
<defs>
<clipPath id="clip0_32_44">
<rect width="16" height="16" fill="white"/>
</clipPath>
</defs>
</svg>

<svg xmlns="http://www.w3.org/2000/svg" width="16" height="16" fill="none"><g clip-path="url(#a)"><path fill="#89725B" fill-rule="evenodd" d="M13.185 2.953a1 1 0 0 1 1.374 1.084l-1.512 9.172c-.146.884-1.117 1.392-1.928.951a38.95 38.95 0 0 1-2.594-1.53c-.453-.296-1.842-1.246-1.671-1.922.147-.578 2.48-2.75 3.813-4.041.524-.508.285-.8-.333-.334C8.799 7.492 6.335 9.254 5.52 9.75c-.72.437-1.094.512-1.542.437a10.215 10.215 0 0 1-2.194-.603c-.836-.347-.795-1.496 0-1.83l11.4-4.8Z" clip-rule="evenodd"/></g><defs><clipPath id="a"><path fill="#fff" d="M0 0h16v16H0z"/></clipPath></defs></svg>
